flaticon/outdoor/basket.svg

<svg xmlns="http://www.w3.org/2000/svg" width="32" height="32" viewBox="0 0 24 24">
    <path d="M 24 6.601562 C 24 5.496094 23.101562 4.601562 22 4.601562 L 17.980469 4.601562 C 17.777344 2.582031 16.070312 1 14 1 L 10 1 C 7.929688 1 6.222656 2.582031 6.019531 4.601562 L 2 4.601562 C 0.898438 4.601562 0 5.496094 0 6.601562 L 0 9.398438 C 0 9.847656 0.152344 10.253906 0.398438 10.585938 L 0.398438 21 C 0.398438 22.101562 1.296875 23 2.398438 23 L 21.601562 23 C 22.703125 23 23.601562 22.101562 23.601562 21 L 23.601562 10.585938 C 23.847656 10.253906 24 9.847656 24 9.398438 Z M 10 1.800781 L 14 1.800781 C 15.628906 1.800781 16.976562 3.023438 17.175781 4.601562 L 16.363281 4.601562 C 16.171875 3.46875 15.1875 2.601562 14 2.601562 L 10 2.601562 C 8.8125 2.601562 7.828125 3.46875 7.636719 4.601562 L 6.824219 4.601562 C 7.023438 3.023438 8.371094 1.800781 10 1.800781 Z M 15.550781 4.601562 L 8.449219 4.601562 C 8.628906 3.910156 9.253906 3.398438 10 3.398438 L 14 3.398438 C 14.742188 3.398438 15.371094 3.910156 15.550781 4.601562 Z M 0.800781 6.601562 C 0.800781 5.9375 1.339844 5.398438 2 5.398438 L 22 5.398438 C 22.660156 5.398438 23.199219 5.9375 23.199219 6.601562 L 23.199219 9.398438 C 23.199219 9.660156 23.113281 9.902344 22.972656 10.097656 L 22.898438 10.183594 C 22.667969 10.449219 22.339844 10.601562 22 10.601562 L 14 10.601562 L 14 10.199219 C 14 9.097656 13.101562 8.199219 12 8.199219 C 10.898438 8.199219 10 9.097656 10 10.199219 L 10 10.601562 L 2 10.601562 C 1.660156 10.601562 1.332031 10.449219 1.101562 10.183594 L 1.027344 10.101562 C 0.886719 9.902344 0.800781 9.660156 0.800781 9.398438 Z M 12 11.398438 C 11.339844 11.398438 10.800781 10.863281 10.800781 10.199219 C 10.800781 9.539062 11.339844 9 12 9 C 12.660156 9 13.199219 9.539062 13.199219 10.199219 C 13.199219 10.863281 12.660156 11.398438 12 11.398438 Z M 10.800781 11.789062 C 11.136719 12.042969 11.546875 12.199219 12 12.199219 C 12.453125 12.199219 12.863281 12.042969 13.199219 11.789062 L 13.199219 12.601562 C 13.199219 13.261719 12.660156 13.800781 12 13.800781 C 11.339844 13.800781 10.800781 13.261719 10.800781 12.601562 Z M 21.601562 22.199219 L 2.398438 22.199219 C 1.738281 22.199219 1.199219 21.660156 1.199219 21 L 1.199219 11.230469 C 1.445312 11.339844 1.714844 11.398438 2 11.398438 L 10 11.398438 L 10 12.601562 C 10 13.703125 10.898438 14.601562 12 14.601562 C 13.101562 14.601562 14 13.703125 14 12.601562 L 14 11.398438 L 22 11.398438 C 22.285156 11.398438 22.554688 11.339844 22.800781 11.230469 L 22.800781 21 C 22.800781 21.660156 22.261719 22.199219 21.601562 22.199219 Z M 21.601562 22.199219"/>
    <path d="M3.691406 20.34375C3.417969 20.675781 2.980469 20.675781 2.707031 20.34375 2.566406 20.175781 2.316406 20.152344 2.144531 20.292969 1.976562 20.433594 1.953125 20.683594 2.09375 20.855469 2.382812 21.207031 2.777344 21.398438 3.199219 21.398438 3.625 21.398438 4.015625 21.207031 4.308594 20.855469 4.449219 20.683594 4.425781 20.433594 4.253906 20.292969 4.085938 20.152344 3.832031 20.175781 3.691406 20.34375zM3.691406 18.34375C3.417969 18.675781 2.980469 18.675781 2.707031 18.34375 2.566406 18.175781 2.316406 18.152344 2.144531 18.292969 1.976562 18.433594 1.953125 18.683594 2.09375 18.855469 2.382812 19.207031 2.777344 19.398438 3.199219 19.398438 3.625 19.398438 4.015625 19.207031 4.308594 18.855469 4.449219 18.683594 4.425781 18.433594 4.253906 18.292969 4.085938 18.152344 3.832031 18.175781 3.691406 18.34375zM3.691406 16.34375C3.417969 16.675781 2.980469 16.675781 2.707031 16.34375 2.566406 16.175781 2.316406 16.152344 2.144531 16.292969 1.976562 16.433594 1.953125 16.683594 2.09375 16.855469 2.382812 17.207031 2.777344 17.398438 3.199219 17.398438 3.625 17.398438 4.015625 17.207031 4.308594 16.855469 4.449219 16.683594 4.425781 16.433594 4.253906 16.292969 4.085938 16.152344 3.832031 16.175781 3.691406 16.34375zM3.691406 14.34375C3.417969 14.675781 2.980469 14.675781 2.707031 14.34375 2.566406 14.175781 2.316406 14.152344 2.144531 14.292969 1.976562 14.433594 1.953125 14.683594 2.09375 14.855469 2.382812 15.207031 2.777344 15.398438 3.199219 15.398438 3.625 15.398438 4.015625 15.207031 4.308594 14.855469 4.449219 14.683594 4.425781 14.433594 4.253906 14.292969 4.085938 14.152344 3.832031 14.175781 3.691406 14.34375zM3.691406 12.34375C3.417969 12.675781 2.980469 12.675781 2.707031 12.34375 2.566406 12.175781 2.316406 12.152344 2.144531 12.292969 1.976562 12.433594 1.953125 12.683594 2.09375 12.855469 2.382812 13.207031 2.777344 13.398438 3.199219 13.398438 3.625 13.398438 4.015625 13.207031 4.308594 12.855469 4.449219 12.683594 4.425781 12.433594 4.253906 12.292969 4.085938 12.152344 3.832031 12.175781 3.691406 12.34375zM3.601562 9.800781C4.023438 9.800781 4.417969 9.605469 4.707031 9.253906 4.847656 9.085938 4.824219 8.832031 4.65625 8.691406 4.484375 8.550781 4.234375 8.574219 4.09375 8.746094 3.820312 9.074219 3.382812 9.074219 3.109375 8.746094 2.96875 8.574219 2.714844 8.550781 2.542969 8.691406 2.375 8.832031 2.351562 9.085938 2.492188 9.253906 2.78125 9.605469 3.175781 9.800781 3.601562 9.800781zM3.601562 7.398438C4.023438 7.398438 4.417969 7.207031 4.707031 6.855469 4.847656 6.683594 4.824219 6.433594 4.65625 6.292969 4.484375 6.152344 4.234375 6.175781 4.09375 6.34375 3.820312 6.675781 3.382812 6.675781 3.109375 6.34375 2.96875 6.175781 2.714844 6.152344 2.542969 6.292969 2.375 6.433594 2.351562 6.683594 2.492188 6.855469 2.78125 7.207031 3.175781 7.398438 3.601562 7.398438zM8.492188 20.34375C8.21875 20.675781 7.78125 20.675781 7.507812 20.34375 7.367188 20.175781 7.113281 20.152344 6.945312 20.292969 6.773438 20.433594 6.75 20.683594 6.890625 20.855469 7.183594 21.207031 7.578125 21.398438 8 21.398438 8.421875 21.398438 8.816406 21.207031 9.109375 20.855469 9.25 20.683594 9.226562 20.433594 9.054688 20.292969 8.886719 20.152344 8.632812 20.175781 8.492188 20.34375zM8.492188 18.34375C8.21875 18.675781 7.78125 18.675781 7.507812 18.34375 7.367188 18.175781 7.113281 18.152344 6.945312 18.292969 6.773438 18.433594 6.75 18.683594 6.890625 18.855469 7.183594 19.207031 7.578125 19.398438 8 19.398438 8.421875 19.398438 8.816406 19.207031 9.109375 18.855469 9.25 18.683594 9.226562 18.433594 9.054688 18.292969 8.886719 18.152344 8.632812 18.175781 8.492188 18.34375zM8.492188 16.34375C8.21875 16.675781 7.78125 16.675781 7.507812 16.34375 7.367188 16.175781 7.113281 16.152344 6.945312 16.292969 6.773438 16.433594 6.75 16.683594 6.890625 16.855469 7.183594 17.207031 7.578125 17.398438 8 17.398438 8.421875 17.398438 8.816406 17.207031 9.109375 16.855469 9.25 16.683594 9.226562 16.433594 9.054688 16.292969 8.886719 16.152344 8.632812 16.175781 8.492188 16.34375zM8.492188 14.34375C8.21875 14.675781 7.78125 14.675781 7.507812 14.34375 7.367188 14.175781 7.113281 14.152344 6.945312 14.292969 6.773438 14.433594 6.75 14.683594 6.890625 14.855469 7.183594 15.207031 7.578125 15.398438 8 15.398438 8.421875 15.398438 8.816406 15.207031 9.109375 14.855469 9.25 14.683594 9.226562 14.433594 9.054688 14.292969 8.886719 14.152344 8.632812 14.175781 8.492188 14.34375zM8.492188 12.34375C8.21875 12.675781 7.78125 12.675781 7.507812 12.34375 7.367188 12.175781 7.113281 12.152344 6.945312 12.292969 6.773438 12.433594 6.75 12.683594 6.890625 12.855469 7.183594 13.207031 7.578125 13.398438 8 13.398438 8.421875 13.398438 8.816406 13.207031 9.109375 12.855469 9.25 12.683594 9.226562 12.433594 9.054688 12.292969 8.886719 12.152344 8.632812 12.175781 8.492188 12.34375zM8 9.800781C8.421875 9.800781 8.816406 9.605469 9.109375 9.253906 9.25 9.085938 9.226562 8.832031 9.054688 8.691406 8.886719 8.550781 8.632812 8.574219 8.492188 8.746094 8.21875 9.074219 7.78125 9.074219 7.507812 8.746094 7.367188 8.574219 7.113281 8.550781 6.945312 8.691406 6.773438 8.832031 6.75 9.085938 6.890625 9.253906 7.183594 9.605469 7.578125 9.800781 8 9.800781zM8 7.398438C8.421875 7.398438 8.816406 7.207031 9.109375 6.855469 9.25 6.683594 9.226562 6.433594 9.054688 6.292969 8.886719 6.152344 8.632812 6.175781 8.492188 6.34375 8.21875 6.675781 7.78125 6.675781 7.507812 6.34375 7.367188 6.175781 7.113281 6.152344 6.945312 6.292969 6.773438 6.433594 6.75 6.683594 6.890625 6.855469 7.183594 7.207031 7.578125 7.398438 8 7.398438zM16.492188 20.34375C16.21875 20.675781 15.78125 20.675781 15.507812 20.34375 15.367188 20.175781 15.113281 20.152344 14.945312 20.292969 14.773438 20.433594 14.75 20.683594 14.890625 20.855469 15.183594 21.207031 15.578125 21.398438 16 21.398438 16.421875 21.398438 16.816406 21.207031 17.109375 20.855469 17.25 20.683594 17.226562 20.433594 17.054688 20.292969 16.886719 20.152344 16.632812 20.175781 16.492188 20.34375zM16.492188 18.34375C16.21875 18.675781 15.78125 18.675781 15.507812 18.34375 15.367188 18.175781 15.113281 18.152344 14.945312 18.292969 14.773438 18.433594 14.75 18.683594 14.890625 18.855469 15.183594 19.207031 15.578125 19.398438 16 19.398438 16.421875 19.398438 16.816406 19.207031 17.109375 18.855469 17.25 18.683594 17.226562 18.433594 17.054688 18.292969 16.886719 18.152344 16.632812 18.175781 16.492188 18.34375zM16.492188 16.34375C16.21875 16.675781 15.78125 16.675781 15.507812 16.34375 15.367188 16.175781 15.113281 16.152344 14.945312 16.292969 14.773438 16.433594 14.75 16.683594 14.890625 16.855469 15.183594 17.207031 15.578125 17.398438 16 17.398438 16.421875 17.398438 16.816406 17.207031 17.109375 16.855469 17.25 16.683594 17.226562 16.433594 17.054688 16.292969 16.886719 16.152344 16.632812 16.175781 16.492188 16.34375zM12.492188 20.34375C12.21875 20.675781 11.78125 20.675781 11.507812 20.34375 11.367188 20.175781 11.113281 20.152344 10.945312 20.292969 10.773438 20.433594 10.75 20.683594 10.890625 20.855469 11.183594 21.207031 11.578125 21.398438 12 21.398438 12.421875 21.398438 12.816406 21.207031 13.109375 20.855469 13.25 20.683594 13.226562 20.433594 13.054688 20.292969 12.886719 20.152344 12.632812 20.175781 12.492188 20.34375zM12.492188 18.34375C12.21875 18.675781 11.78125 18.675781 11.507812 18.34375 11.367188 18.175781 11.113281 18.152344 10.945312 18.292969 10.773438 18.433594 10.75 18.683594 10.890625 18.855469 11.183594 19.207031 11.578125 19.398438 12 19.398438 12.421875 19.398438 12.816406 19.207031 13.109375 18.855469 13.25 18.683594 13.226562 18.433594 13.054688 18.292969 12.886719 18.152344 12.632812 18.175781 12.492188 18.34375zM12.492188 16.34375C12.21875 16.675781 11.78125 16.675781 11.507812 16.34375 11.367188 16.175781 11.113281 16.152344 10.945312 16.292969 10.773438 16.433594 10.75 16.683594 10.890625 16.855469 11.183594 17.207031 11.578125 17.398438 12 17.398438 12.421875 17.398438 12.816406 17.207031 13.109375 16.855469 13.25 16.683594 13.226562 16.433594 13.054688 16.292969 12.886719 16.152344 12.632812 16.175781 12.492188 16.34375zM16.492188 14.34375C16.21875 14.675781 15.78125 14.675781 15.507812 14.34375 15.367188 14.175781 15.113281 14.152344 14.945312 14.292969 14.773438 14.433594 14.75 14.683594 14.890625 14.855469 15.183594 15.207031 15.578125 15.398438 16 15.398438 16.421875 15.398438 16.816406 15.207031 17.109375 14.855469 17.25 14.683594 17.226562 14.433594 17.054688 14.292969 16.886719 14.152344 16.632812 14.175781 16.492188 14.34375zM16.492188 12.34375C16.21875 12.675781 15.78125 12.675781 15.507812 12.34375 15.367188 12.175781 15.113281 12.152344 14.945312 12.292969 14.773438 12.433594 14.75 12.683594 14.890625 12.855469 15.183594 13.207031 15.578125 13.398438 16 13.398438 16.421875 13.398438 16.816406 13.207031 17.109375 12.855469 17.25 12.683594 17.226562 12.433594 17.054688 12.292969 16.886719 12.152344 16.632812 12.175781 16.492188 12.34375zM16 9.800781C16.421875 9.800781 16.816406 9.605469 17.109375 9.253906 17.25 9.085938 17.226562 8.832031 17.054688 8.691406 16.886719 8.550781 16.632812 8.574219 16.492188 8.746094 16.21875 9.074219 15.78125 9.074219 15.507812 8.746094 15.367188 8.574219 15.113281 8.550781 14.945312 8.691406 14.773438 8.832031 14.75 9.085938 14.890625 9.253906 15.183594 9.605469 15.578125 9.800781 16 9.800781zM16 7.398438C16.421875 7.398438 16.816406 7.207031 17.109375 6.855469 17.25 6.683594 17.226562 6.433594 17.054688 6.292969 16.886719 6.152344 16.632812 6.175781 16.492188 6.34375 16.21875 6.675781 15.78125 6.675781 15.507812 6.34375 15.367188 6.175781 15.113281 6.152344 14.945312 6.292969 14.773438 6.433594 14.75 6.683594 14.890625 6.855469 15.183594 7.207031 15.578125 7.398438 16 7.398438zM12 7.398438C12.421875 7.398438 12.816406 7.207031 13.109375 6.855469 13.25 6.683594 13.226562 6.433594 13.054688 6.292969 12.886719 6.152344 12.632812 6.175781 12.492188 6.34375 12.21875 6.675781 11.78125 6.675781 11.507812 6.34375 11.367188 6.175781 11.113281 6.152344 10.945312 6.292969 10.773438 6.433594 10.75 6.683594 10.890625 6.855469 11.183594 7.207031 11.578125 7.398438 12 7.398438zM21.292969 20.34375C21.019531 20.675781 20.582031 20.675781 20.308594 20.34375 20.167969 20.175781 19.914062 20.152344 19.746094 20.292969 19.574219 20.433594 19.550781 20.683594 19.691406 20.855469 19.984375 21.207031 20.375 21.398438 20.800781 21.398438 21.222656 21.398438 21.617188 21.207031 21.90625 20.855469 22.050781 20.683594 22.023438 20.433594 21.855469 20.292969 21.6875 20.152344 21.433594 20.175781 21.292969 20.34375zM21.292969 18.34375C21.019531 18.675781 20.582031 18.675781 20.308594 18.34375 20.167969 18.175781 19.914062 18.152344 19.746094 18.292969 19.574219 18.433594 19.550781 18.683594 19.691406 18.855469 19.984375 19.207031 20.375 19.398438 20.800781 19.398438 21.222656 19.398438 21.617188 19.207031 21.90625 18.855469 22.050781 18.683594 22.023438 18.433594 21.855469 18.292969 21.6875 18.152344 21.433594 18.175781 21.292969 18.34375zM21.292969 16.34375C21.019531 16.675781 20.582031 16.675781 20.308594 16.34375 20.167969 16.175781 19.914062 16.152344 19.746094 16.292969 19.574219 16.433594 19.550781 16.683594 19.691406 16.855469 19.984375 17.207031 20.375 17.398438 20.800781 17.398438 21.222656 17.398438 21.617188 17.207031 21.90625 16.855469 22.050781 16.683594 22.023438 16.433594 21.855469 16.292969 21.6875 16.152344 21.433594 16.175781 21.292969 16.34375zM21.292969 14.34375C21.019531 14.675781 20.582031 14.675781 20.308594 14.34375 20.167969 14.175781 19.914062 14.152344 19.746094 14.292969 19.574219 14.433594 19.550781 14.683594 19.691406 14.855469 19.984375 15.207031 20.375 15.398438 20.800781 15.398438 21.222656 15.398438 21.617188 15.207031 21.90625 14.855469 22.050781 14.683594 22.023438 14.433594 21.855469 14.292969 21.6875 14.152344 21.433594 14.175781 21.292969 14.34375zM21.292969 12.34375C21.019531 12.675781 20.582031 12.675781 20.308594 12.34375 20.167969 12.175781 19.914062 12.152344 19.746094 12.292969 19.574219 12.433594 19.550781 12.683594 19.691406 12.855469 19.984375 13.207031 20.375 13.398438 20.800781 13.398438 21.222656 13.398438 21.617188 13.207031 21.90625 12.855469 22.050781 12.683594 22.023438 12.433594 21.855469 12.292969 21.6875 12.152344 21.433594 12.175781 21.292969 12.34375zM20.398438 9.800781C20.824219 9.800781 21.21875 9.605469 21.507812 9.253906 21.648438 9.085938 21.625 8.832031 21.457031 8.691406 21.285156 8.550781 21.03125 8.574219 20.890625 8.746094 20.617188 9.074219 20.179688 9.074219 19.90625 8.746094 19.765625 8.574219 19.515625 8.550781 19.34375 8.691406 19.175781 8.832031 19.152344 9.085938 19.292969 9.253906 19.582031 9.605469 19.976562 9.800781 20.398438 9.800781zM20.398438 7.398438C20.824219 7.398438 21.21875 7.207031 21.507812 6.855469 21.648438 6.683594 21.625 6.433594 21.457031 6.292969 21.285156 6.152344 21.03125 6.175781 20.890625 6.34375 20.617188 6.675781 20.179688 6.675781 19.90625 6.34375 19.765625 6.175781 19.515625 6.152344 19.34375 6.292969 19.175781 6.433594 19.152344 6.683594 19.292969 6.855469 19.582031 7.207031 19.976562 7.398438 20.398438 7.398438zM5.601562 12.601562C5.378906 12.601562 5.199219 12.777344 5.199219 13L5.199219 21C5.199219 21.222656 5.378906 21.398438 5.601562 21.398438 5.820312 21.398438 6 21.222656 6 21L6 13C6 12.777344 5.820312 12.601562 5.601562 12.601562zM18.398438 12.601562C18.179688 12.601562 18 12.777344 18 13L18 21C18 21.222656 18.179688 21.398438 18.398438 21.398438 18.621094 21.398438 18.800781 21.222656 18.800781 21L18.800781 13C18.800781 12.777344 18.621094 12.601562 18.398438 12.601562zM18.398438 12.601562"/>
</svg>

<svg xmlns="http://www.w3.org/2000/svg" width="32" height="32" viewBox="0 0 24 24">
    <path d="M24 6.602c0-1.106-.898-2-2-2h-4.02A4.008 4.008 0 0 0 14 1h-4a4.008 4.008 0 0 0-3.98 3.602H2c-1.102 0-2 .894-2 2v2.796c0 .45.152.856.398 1.188V21c0 1.102.899 2 2 2h19.204c1.101 0 2-.898 2-2V10.586c.246-.332.398-.738.398-1.188zM10 1.8h4a3.206 3.206 0 0 1 3.176 2.8h-.813a2.401 2.401 0 0 0-2.363-2h-4a2.401 2.401 0 0 0-2.363 2h-.813A3.206 3.206 0 0 1 10 1.802zm5.55 2.8h-7.1A1.605 1.605 0 0 1 10 3.399h4c.742 0 1.371.512 1.55 1.204zm-14.75 2c0-.663.54-1.203 1.2-1.203h20c.66 0 1.2.54 1.2 1.204v2.796c0 .262-.087.504-.227.7l-.075.086c-.23.265-.558.418-.898.418h-8v-.403c0-1.101-.898-2-2-2-1.102 0-2 .899-2 2v.403H2c-.34 0-.668-.153-.898-.418l-.075-.082c-.14-.2-.226-.442-.226-.704zM12 11.399A1.2 1.2 0 1 1 12 9a1.2 1.2 0 0 1 0 2.4zm-1.2.391c.337.254.747.41 1.2.41.453 0 .863-.156 1.2-.41v.813c0 .66-.54 1.199-1.2 1.199-.66 0-1.2-.54-1.2-1.2zM21.603 22.2H2.398C1.738 22.2 1.2 21.66 1.2 21v-9.77c.246.11.516.168.801.168h8v1.204c0 1.101.898 2 2 2 1.102 0 2-.899 2-2v-1.204h8c.285 0 .555-.058.8-.168V21c0 .66-.538 1.2-1.198 1.2zm0 0"/>
    <path d="M3.691 20.344c-.273.332-.71.332-.984 0a.401.401 0 0 0-.562-.051.401.401 0 0 0-.051.562c.289.352.683.543 1.105.543.426 0 .817-.191 1.11-.543a.401.401 0 0 0-.617-.512zm0 0M3.691 18.344c-.273.332-.71.332-.984 0a.401.401 0 0 0-.562-.051.401.401 0 0 0-.051.562c.289.352.683.543 1.105.543.426 0 .817-.191 1.11-.543a.401.401 0 0 0-.617-.512zm0 0M3.691 16.344c-.273.332-.71.332-.984 0a.401.401 0 0 0-.562-.051.401.401 0 0 0-.051.562c.289.352.683.543 1.105.543.426 0 .817-.191 1.11-.543a.401.401 0 0 0-.617-.512zm0 0M3.691 14.344c-.273.332-.71.332-.984 0a.401.401 0 0 0-.562-.051.401.401 0 0 0-.051.562c.289.352.683.543 1.105.543.426 0 .817-.191 1.11-.543a.401.401 0 0 0-.617-.512zm0 0M3.691 12.344c-.273.332-.71.332-.984 0a.401.401 0 0 0-.562-.051.401.401 0 0 0-.051.562c.289.352.683.543 1.105.543.426 0 .817-.191 1.11-.543a.401.401 0 0 0-.617-.512zm0 0M3.602 9.8c.421 0 .816-.195 1.105-.546a.398.398 0 1 0-.613-.508c-.274.328-.711.328-.985 0a.403.403 0 0 0-.566-.055.401.401 0 0 0-.05.563c.288.351.683.547 1.109.547zm0 0M3.602 7.398c.421 0 .816-.191 1.105-.543a.401.401 0 0 0-.05-.562.401.401 0 0 0-.563.05c-.274.333-.711.333-.985 0a.406.406 0 0 0-.566-.05.401.401 0 0 0-.05.562c.288.352.683.543 1.109.543zm0 0M8.492 20.344c-.273.332-.71.332-.984 0a.401.401 0 0 0-.617.511c.293.352.687.543 1.109.543.422 0 .816-.191 1.11-.543a.401.401 0 0 0-.617-.512zm0 0M8.492 18.344c-.273.332-.71.332-.984 0a.401.401 0 0 0-.617.511c.293.352.687.543 1.109.543.422 0 .816-.191 1.11-.543a.401.401 0 0 0-.617-.512zm0 0M8.492 16.344c-.273.332-.71.332-.984 0a.401.401 0 0 0-.617.511c.293.352.687.543 1.109.543.422 0 .816-.191 1.11-.543a.401.401 0 0 0-.617-.512zm0 0M8.492 14.344c-.273.332-.71.332-.984 0a.401.401 0 0 0-.617.511c.293.352.687.543 1.109.543.422 0 .816-.191 1.11-.543a.401.401 0 0 0-.617-.512zm0 0M8.492 12.344c-.273.332-.71.332-.984 0a.401.401 0 0 0-.617.511c.293.352.687.543 1.109.543.422 0 .816-.191 1.11-.543a.401.401 0 0 0-.617-.512zm0 0M8 9.8c.422 0 .816-.195 1.11-.546a.398.398 0 0 0-.055-.563.398.398 0 0 0-.563.055c-.273.328-.71.328-.984 0a.398.398 0 0 0-.563-.055.398.398 0 0 0-.054.563c.293.351.687.547 1.109.547zm0 0M8 7.398c.422 0 .816-.191 1.11-.543a.401.401 0 0 0-.617-.512c-.274.333-.712.333-.985 0a.401.401 0 0 0-.617.512c.293.352.687.543 1.109.543zm0 0M16.492 20.344c-.273.332-.71.332-.984 0a.401.401 0 0 0-.617.511c.293.352.687.543 1.109.543.422 0 .816-.191 1.11-.543a.401.401 0 0 0-.617-.512zm0 0M16.492 18.344c-.273.332-.71.332-.984 0a.401.401 0 0 0-.617.511c.293.352.687.543 1.109.543.422 0 .816-.191 1.11-.543a.401.401 0 0 0-.617-.512zm0 0M16.492 16.344c-.273.332-.71.332-.984 0a.401.401 0 0 0-.617.511c.293.352.687.543 1.109.543.422 0 .816-.191 1.11-.543a.401.401 0 0 0-.617-.512zm0 0M12.492 20.344c-.273.332-.71.332-.984 0a.401.401 0 0 0-.617.511c.293.352.687.543 1.109.543.422 0 .816-.191 1.11-.543a.401.401 0 0 0-.617-.512zm0 0M12.492 18.344c-.273.332-.71.332-.984 0a.401.401 0 0 0-.617.511c.293.352.687.543 1.109.543.422 0 .816-.191 1.11-.543a.401.401 0 0 0-.617-.512zm0 0M12.492 16.344c-.273.332-.71.332-.984 0a.401.401 0 0 0-.617.511c.293.352.687.543 1.109.543.422 0 .816-.191 1.11-.543a.401.401 0 0 0-.617-.512zm0 0M16.492 14.344c-.273.332-.71.332-.984 0a.401.401 0 0 0-.617.511c.293.352.687.543 1.109.543.422 0 .816-.191 1.11-.543a.401.401 0 0 0-.617-.512zm0 0M16.492 12.344c-.273.332-.71.332-.984 0a.401.401 0 0 0-.617.511c.293.352.687.543 1.109.543.422 0 .816-.191 1.11-.543a.401.401 0 0 0-.617-.512zm0 0M16 9.8c.422 0 .816-.195 1.11-.546a.398.398 0 0 0-.055-.563.398.398 0 0 0-.563.055c-.273.328-.71.328-.984 0a.398.398 0 0 0-.563-.055.398.398 0 0 0-.054.563c.293.351.687.547 1.109.547zm0 0M16 7.398c.422 0 .816-.191 1.11-.543a.401.401 0 0 0-.617-.512c-.274.333-.712.333-.985 0a.401.401 0 0 0-.617.512c.293.352.687.543 1.109.543zm0 0M12 7.398c.422 0 .816-.191 1.11-.543a.401.401 0 0 0-.617-.512c-.274.333-.712.333-.985 0a.401.401 0 0 0-.617.512c.293.352.687.543 1.109.543zm0 0M21.293 20.344c-.273.332-.711.332-.984 0a.401.401 0 0 0-.618.511c.293.352.684.543 1.11.543.422 0 .816-.191 1.105-.543a.397.397 0 0 0-.05-.562.401.401 0 0 0-.563.05zm0 0M21.293 18.344c-.273.332-.711.332-.984 0a.401.401 0 0 0-.618.511c.293.352.684.543 1.11.543.422 0 .816-.191 1.105-.543a.397.397 0 0 0-.05-.562.401.401 0 0 0-.563.05zm0 0M21.293 16.344c-.273.332-.711.332-.984 0a.401.401 0 0 0-.618.511c.293.352.684.543 1.11.543.422 0 .816-.191 1.105-.543a.397.397 0 0 0-.05-.562.401.401 0 0 0-.563.05zm0 0M21.293 14.344c-.273.332-.711.332-.984 0a.401.401 0 0 0-.618.511c.293.352.684.543 1.11.543.422 0 .816-.191 1.105-.543a.397.397 0 0 0-.05-.562.401.401 0 0 0-.563.05zm0 0M21.293 12.344c-.273.332-.711.332-.984 0a.401.401 0 0 0-.618.511c.293.352.684.543 1.11.543.422 0 .816-.191 1.105-.543a.397.397 0 0 0-.05-.562.401.401 0 0 0-.563.05zm0 0M20.398 9.8c.426 0 .82-.195 1.11-.546a.401.401 0 0 0-.051-.563.403.403 0 0 0-.566.055c-.274.328-.711.328-.985 0a.398.398 0 1 0-.613.508c.289.351.684.547 1.105.547zm0 0M20.398 7.398c.426 0 .82-.191 1.11-.543a.401.401 0 0 0-.051-.562.406.406 0 0 0-.566.05c-.274.333-.711.333-.985 0a.401.401 0 0 0-.562-.05.401.401 0 0 0-.051.562c.289.352.684.543 1.105.543zm0 0M5.602 12.602a.398.398 0 0 0-.403.398v8c0 .223.18.398.403.398A.398.398 0 0 0 6 21v-8a.398.398 0 0 0-.398-.398zm0 0M18.398 12.602A.398.398 0 0 0 18 13v8c0 .223.18.398.398.398a.398.398 0 0 0 .403-.398v-8a.398.398 0 0 0-.403-.398zm0 0"/>
</svg>
